X: 10507
T: Dooley's Delight
R: reel
M: 4/4
K: Aminor
B|ABcB AGEG|ecdB cBAG|ABcd ea^ga|gede gedB|
ABcB AGEG|ecdB cBAB|cdeg ^fded|(3cBA BG A3:|
z|A2cA eage|(3ABA cA GBdg|edeg a^gab|g^fed edcB|
A2cA eage|(3ABA cA GBdg|a^gab =ge^fd|(3cBA BG A3:|

